-----BEGIN PGP PUBLIC KEY BLOCK-----

mQINBGldfjoBEADEP2zfAlUjNfqM421//sTlbPB4Wu877Z+qnbaCpgOkEuqpdmS2
x2njjLG3UFS4v83YCN7bcrrRBw2TBrWMQr7fEJb4VoW76IJ3jZF1YfyDFyfyGYfK
MUZY1C1Yw2CrF5QYfHpX1t5Ox5jaNiro85nyCJG8sYECMh/cD7QUjQZ+cmUXw/2J
V5p3RWEKVhSPUVHAgWr7e1n8SLJz0At9NYmypyklSQSUmokLdqrduycnvkHXWn1J
S1SNU2//+GVOqGqN4cvpslaIXbuRag/tgmGxyydRSc/KeAZ+eO35tvO9dyDyOrVU
SvY7AUkGBjRn7Zj0sSJjV72HyH8kAkU1vY06d+jXk9ohwn1fTRgg45rKCKubDTIN
iCbhsaJvyEMRHFoq3NCKg5DxTt3fQXvGG/Hvle2P7jwsaLwlg2v/FZEnFYvg4K9x
9toHhx2cNP3cXiYGNBpfxtup0GPN+t6s4qAtrF+OxUPE1ukAnKmOCD+W6jTZf4H7
HWOme7XOb83JrdXUXX8zf10rpjoThdu0IcRmhasT2lGWKn+cHmXCo2Tay8U/ikyA
DEFbsJ9mniMeSVKJY1RCj323scLuFZ+RLVL48ySGKVpBCUNWvXQhT8r/VF2DjPHm
X4tA6SHRLew3e2v+QGlYRezO4naEPflLTAEEiwwS/AGPyZnlKUXB5qV0xwARAQAB
tCNBbnRvbmlvIERpYXogRGlheiA8YW50b25pb0BnbnUub3JnPokCOAQTAQIAIgUC
aV1+OgIbAwYLCQgHAwIGFQgCCQoLBBYCAwECHgECF4AACgkQJbYsmCFQGqB1Ww//
Zlux9LcjIh6Tit2VoXeAGmTl0BOPQezh8dyOpDeYU9FvFZrT3wN33r85B8xjr0NF
GoxDyUtdRedV1tdbyBN+8fU5wQ2To1UPEUinqOnoNVM5FbxdXEpSjxwkaGkdnERu
ywvMiVjhG4j3pDUMxrA8j94xkJHYZNXkLyU158/uDhFIQ6iti+PvbWko7SjBWyN5
AZrMRhtzbL7txV1e9H8aaN+YtzEclFNmXeI4y9sR4PlqvqDUUhNYMKaydSL08qFt
xi30i0tFbAp/Cyo/DdsQN+j8vJXO/NIq8xXtFfVHjzrQ521O3SLxUpHhLqHp9Vav
CcFE9FlrqikuExM1mhjqlaToGvc2jKk5OKPPSCObUUgvfQrrY7UQ8Jza1+l7Z5cI
yvav3FV2SiRteoDnPxCGB8oZ7jShaqFgnWFz97hBn3j7Zn/jmAP1cf/s3n21vbUF
B7cPFaJEu+cm9yOwhw6u+w+eV9Bv6JSNrorWnePLKw1Q7EgxLvpbhpHp/JhlBclN
IXWYAk2ZSGBcRjT2om3fToyoyDBsAZKaJ7XsbofXCwUEiwNzm1CbH8YLM6VvG3hH
QMGyrQkhqvmRZ1+YNvonu36CnND0mivVA3DLZjH0z+u3D3JEWNBkI+lMhwSNgso0
iIhlGAYWTWV69vIQ7L74kh2L1Dr3iWEIJNGdCm2U+VGIRgQQEQIABgUCaY4KSgAK
CRCP6ZUDEy13QkVvAKCS7tWOddmFrTfKwiwgcuLlszKxRQCdFyTmrihTa5Gq01cL
EbPNVVt0r2u5Ag0EaV1+OgEQANu6z0+CJJaXA/Toqr+D8TwPAkaZpp4svzoQjWxE
HQm9S0196eS6umlygyDDTNHuUWH0AOv93Jy5/uIz3DFaxH03xRudL+jhQChUH+g8
8T3VQwVAo4mXTMis26DoXQQDsBmMEJq7et3K2BeEFzqGZDEoscwE6BY1Qm0Nzu9p
MY1uHt42p6+sxS7AZxVj5+3pOgYRyAzOXuRNNIaB9kVwABY3UB9hW1937TMg3Uv6
8gVVGmxHrKcQh2GmKpTJd2VfKHWu7idMZtcJIgimi3RuJZ35Hs//QXXKjt9cTnIk
/vc+VQpnX+bm7vciBc+hP+xwpn9LTQLLQXQModi7f2jj3PseF4uveBClpfe7CQDy
2mpC6YuHhziRpkV7LKLYkqzobXZE88KB038uti9Wg42CKssE/DkKMCmw5epJ4Dp0
YFeWGHI6qwGa9ZFuSlVvT3nUa+6dXt/XRrZ0O5FFCvOuqsF4w3KOUPVh8f4K30uu
5dER6lmTzqvqRIfJcUpxolhXOHQQxJj1xJLiDucRqCY7/nY4I0R3nNOmaOIYs/cB
7WqAJOqVyzwL3X6I8iSutKERR2Dx59MU9jmBmoz1GxiLwLit7Uych+S7TfEAdqnO
9SRlQEEL0nlSlIGSJ9bRCrkBlBbw2bBqqZ6e+UEX1OI5I1MdMM7s6m7TyAgfBS8D
yqBzABEBAAGJAh8EGAECAAkFAmldfjoCGwwACgkQJbYsmCFQGqApIA//XlukFOpZ
Na2lc30A6rdRtdNDt/A5Dd+ILOUBWPzUeCVIwjJr4tjXHj7Pu+PBLO2RbS2HGQrh
/1x8/L1wQbbkx+oTVSOvMhgAuL/QiYfiulzqA0oLMAcoOih3XfQYrdCoJJEs3V4w
tn5dci7HMn4Km1SMbXrR3kirgeqYatqo8v4FaqjIhFnEEdgHSEoZ9PEY2txvA0yd
pPxA2HpfZXOCp34CDy8DR7CbbmxsxPzjlb5QZb4Pn+fywIDFBEVqPBzBdw5mEcpk
inXQAIviYLGHbI3Xvs8YDdyEiFNBS0k+8kLhs3wI0K2HMKEinMPzsMwjYywrW6A2
8y6rxbrVP3es0TohnbWjRWS8Sni9yylk0/fywTlVT8xkLLwsm7dhCXwNlO7zYnnG
y13nWnZrpkCaFeOAPuLujsXQb4IXuoDAczeMx8Siw6qHYvcFIu63ngeo1z7WcHW5
goXUIV0sH7Y+eH3RRGXPMW+wssLQi5JIRo32eJBAriTLqSPxxJZgC4NoMUJuAB+R
a9HbuPXrO1qcIxnePec/4qzux49f1ydlQJdlTpoeG7X5Hk+2ussMIbFvVAU7KXQH
+EZKn80bvzftzJgmEyXGe1lB2fCzOaXjVEzAKWEdovJHpTEFNMq1qH2iDr59Tv7V
p1Ij2V8o64j8WrrfuhnmoitNOGAhDfJCBzA=
=XvYb
-----END PGP PUBLIC KEY BLOCK-----
